latex_in_markdown/.watch-latex-md-images/90d777bda1d64f482bbd7ee431963e17.svg

<ns0:svg xmlns:ns0="http://www.w3.org/2000/svg" xmlns:ns1="http://www.w3.org/1999/xlink" height="13.9518pt" version="1.1" viewBox="23.686 60.768 22.5841 13.9518" width="22.5841pt" watch_lated_md:baseline="-5.329070518200751e-15" xmlns:watch_lated_md="https://github.com/Quansight/pearu-sandbox/latex_in_markdown/">
<ns0:defs>
<ns0:path d="m4.61374 -5.40565h0.619756l2.58232 3.99398c0.172154 0.275447 0.585325 0.946849 0.774695 1.20508c0.120508 0.206585 0.172154 0.206585 0.56811 0.206585h2.37573c0.309878 0 0.56811 0 0.56811 -0.309878c0 -0.137724 -0.103293 -0.258232 -0.258232 -0.292662c-0.636971 -0.137724 -1.48053 -1.27394 -1.8937 -1.82484c-0.120508 -0.172154 -0.98128 -1.30837 -2.13471 -3.16764c1.53217 -0.275447 3.0127 -0.929634 3.0127 -2.97827c0 -2.39295 -2.53067 -3.21929 -4.56209 -3.21929h-5.40565c-0.309878 0 -0.585325 0 -0.585325 0.309878c0 0.292662 0.327093 0.292662 0.464817 0.292662c0.98128 0 1.06736 0.120508 1.06736 0.98128v8.62494c0 0.860772 -0.0860772 0.98128 -1.06736 0.98128c-0.137724 0 -0.464817 0 -0.464817 0.292662c0 0.309878 0.275447 0.309878 0.585325 0.309878h4.71703c0.309878 0 0.56811 0 0.56811 -0.309878c0 -0.292662 -0.292662 -0.292662 -0.482032 -0.292662c-0.98128 0 -1.05014 -0.137724 -1.05014 -0.98128v-3.82183zm3.32258 -0.843557c0.482032 -0.636971 0.533679 -1.54939 0.533679 -2.30687c0 -0.826341 -0.103293 -1.73876 -0.654187 -2.44459c0.705833 0.154939 2.41016 0.688618 2.41016 2.42738c0 1.119 -0.516463 1.99699 -2.28965 2.32408zm-3.32258 -4.0112c0 -0.361524 0 -0.929634 1.06736 -0.929634c1.46331 0 2.18636 0.60254 2.18636 2.63396c0 2.22079 -0.533679 2.54789 -3.25372 2.54789v-4.25221zm-2.3413 9.65786c0.137724 -0.309878 0.137724 -0.79191 0.137724 -0.946849v-8.6938c0 -0.172154 0 -0.636971 -0.137724 -0.946849h1.96256c-0.223801 0.275447 -0.223801 0.619756 -0.223801 0.877987v8.76266c0 0.172154 0 0.636971 0.137724 0.946849h-1.87648zm3.66689 -4.80311c0.120508 -0.0172154 0.18937 -0.0344309 0.327093 -0.0344309c0.258232 0 0.636971 -0.0344309 0.895203 -0.0688618c0.258232 0.413171 2.1175 3.47752 3.54638 4.9064h-1.6699l-3.09878 -4.80311z" id="g0-82" />
<ns0:path d="m5.26027 -2.00847h-0.263014c-0.0358655 0.203238 -0.131507 0.860772 -0.251059 1.05205c-0.0836862 0.107597 -0.765131 0.107597 -1.12379 0.107597h-2.21171c0.32279 -0.274969 1.05205 -1.0401 1.36289 -1.32702c1.81719 -1.67372 2.48667 -2.29539 2.48667 -3.47895c0 -1.37484 -1.08792 -2.29539 -2.47472 -2.29539s-2.19975 1.18356 -2.19975 2.21171c0 0.609714 0.526027 0.609714 0.561893 0.609714c0.251059 0 0.561893 -0.179328 0.561893 -0.561893c0 -0.334745 -0.227148 -0.561893 -0.561893 -0.561893c-0.107597 0 -0.131507 0 -0.167372 0.0119552c0.227148 -0.812951 0.872727 -1.36289 1.64981 -1.36289c1.01619 0 1.63786 0.848817 1.63786 1.94869c0 1.01619 -0.585803 1.90087 -1.26725 2.666l-2.41494 2.70187v0.286924h4.36364l0.310834 -2.00847z" id="g1-50" />
<ns0:path d="m2.85776 -0.705833c0 -0.430386 -0.344309 -0.705833 -0.705833 -0.705833c-0.344309 0 -0.705833 0.275447 -0.705833 0.705833s0.344309 0.705833 0.705833 0.705833c0.344309 0 0.705833 -0.275447 0.705833 -0.705833z" id="g2-46" />
</ns0:defs>
<ns0:g id="page1">
<ns0:use x="27.9837" ns1:href="#g0-82" y="74.7198" />
<ns0:use x="40.4171" ns1:href="#g1-50" y="68.4725" />
</ns0:g>
</ns0:svg>

<ns0:svg xmlns:ns0="http://www.w3.org/2000/svg" xmlns:ns1="http://www.w3.org/1999/xlink" height="13.9518pt" version="1.1" viewBox="23.686 60.768 22.5841 13.9518" width="22.5841pt" watch_lated_md:baseline="-5.329070518200751e-15" xmlns:watch_lated_md="https://github.com/Quansight/pearu-sandbox/latex_in_markdown/">
<ns0:defs>
<ns0:path d="M4.61374 -5.40565H5.23349L7.81581 -1.41167C7.98796 -1.13622 8.40114 -0.464817 8.5905 -0.206585C8.71101 0 8.76266 0 9.15861 0H11.5343C11.8442 0 12.1025 0 12.1025 -0.309878C12.1025 -0.447601 11.9992 -0.56811 11.8442 -0.60254C11.2073 -0.740264 10.3637 -1.87648 9.95052 -2.42738C9.83002 -2.59953 8.96924 -3.73575 7.81581 -5.59502C9.34798 -5.87047 10.8285 -6.52465 10.8285 -8.57329C10.8285 -10.9662 8.29784 -11.7926 6.26642 -11.7926H0.860772C0.550894 -11.7926 0.275447 -11.7926 0.275447 -11.4827C0.275447 -11.19 0.60254 -11.19 0.740264 -11.19C1.72154 -11.19 1.80762 -11.0695 1.80762 -10.2088V-1.58382C1.80762 -0.723049 1.72154 -0.60254 0.740264 -0.60254C0.60254 -0.60254 0.275447 -0.60254 0.275447 -0.309878C0.275447 0 0.550894 0 0.860772 0H5.5778C5.88768 0 6.14591 0 6.14591 -0.309878C6.14591 -0.60254 5.85325 -0.60254 5.66388 -0.60254C4.6826 -0.60254 4.61374 -0.740264 4.61374 -1.58382V-5.40565ZM7.93632 -6.24921C8.41835 -6.88618 8.47 -7.79859 8.47 -8.55607C8.47 -9.38242 8.3667 -10.2948 7.81581 -11.0007C8.52164 -10.8457 10.226 -10.312 10.226 -8.57329C10.226 -7.45429 9.70951 -6.5763 7.93632 -6.24921ZM4.61374 -10.2604C4.61374 -10.6219 4.61374 -11.19 5.6811 -11.19C7.14441 -11.19 7.86746 -10.5875 7.86746 -8.55607C7.86746 -6.33528 7.33378 -6.00819 4.61374 -6.00819V-10.2604ZM2.27244 -0.60254C2.41016 -0.912418 2.41016 -1.39445 2.41016 -1.54939V-10.2432C2.41016 -10.4153 2.41016 -10.8802 2.27244 -11.19H4.235C4.0112 -10.9146 4.0112 -10.5703 4.0112 -10.312V-1.54939C4.0112 -1.37724 4.0112 -0.912418 4.14892 -0.60254H2.27244ZM5.93933 -5.40565C6.05984 -5.42286 6.1287 -5.44008 6.26642 -5.44008C6.52465 -5.44008 6.90339 -5.47451 7.16162 -5.50894C7.41986 -5.09577 9.27912 -2.03142 10.708 -0.60254H9.03811L5.93933 -5.40565Z" id="g0-82" />
<ns0:path d="M5.26027 -2.00847H4.99726C4.96139 -1.80523 4.86575 -1.1477 4.7462 -0.956413C4.66252 -0.848817 3.98107 -0.848817 3.62242 -0.848817H1.41071C1.7335 -1.12379 2.46276 -1.88892 2.7736 -2.17584C4.59078 -3.84956 5.26027 -4.47123 5.26027 -5.65479C5.26027 -7.02964 4.17235 -7.95019 2.78555 -7.95019S0.585803 -6.76663 0.585803 -5.73848C0.585803 -5.12877 1.11183 -5.12877 1.1477 -5.12877C1.39875 -5.12877 1.70959 -5.30809 1.70959 -5.69066C1.70959 -6.0254 1.48244 -6.25255 1.1477 -6.25255C1.0401 -6.25255 1.01619 -6.25255 0.980324 -6.2406C1.20747 -7.05355 1.85305 -7.60349 2.63014 -7.60349C3.64633 -7.60349 4.268 -6.75467 4.268 -5.65479C4.268 -4.63861 3.68219 -3.75392 3.00075 -2.98879L0.585803 -0.286924V0H4.94944L5.26027 -2.00847Z" id="g1-50" />
<ns0:path d="M2.85776 -0.705833C2.85776 -1.13622 2.51345 -1.41167 2.15193 -1.41167C1.80762 -1.41167 1.4461 -1.13622 1.4461 -0.705833S1.79041 0 2.15193 0C2.49624 0 2.85776 -0.275447 2.85776 -0.705833Z" id="g2-46" />
</ns0:defs>
<ns0:g id="page1">
<ns0:use x="27.9837" ns1:href="#g0-82" y="74.7198" />
<ns0:use x="40.4171" ns1:href="#g1-50" y="68.4725" />
</ns0:g>
</ns0:svg>
